Newaita-dark/actions/22/page-simple.svg

<?xml version="1.0" encoding="UTF-8"?>
<svg xmlns="http://www.w3.org/2000/svg" xmlns:xlink="http://www.w3.org/1999/xlink" width="22pt" height="22pt" viewBox="0 0 22 22" version="1.1">
<g id="surface1">
<path style=" stroke:none;fill-rule:nonzero;fill:rgb(74.117649%,74.117649%,74.117649%);fill-opacity:1;" d="M 5.003906 1.082031 C 4.246094 1.082031 3.636719 1.691406 3.636719 2.445312 L 3.636719 19.726562 C 3.636719 20.484375 4.246094 21.09375 5.003906 21.09375 L 16.828125 21.09375 C 17.582031 21.09375 18.191406 20.484375 18.191406 19.726562 L 18.191406 2.445312 C 18.191406 1.691406 17.582031 1.082031 16.828125 1.082031 Z M 5.914062 2.445312 L 15.917969 2.445312 C 16.421875 2.445312 16.828125 2.851562 16.828125 3.355469 L 16.828125 18.820312 C 16.828125 19.324219 16.421875 19.726562 15.917969 19.726562 L 5.914062 19.726562 C 5.410156 19.726562 5.003906 19.324219 5.003906 18.820312 L 5.003906 3.355469 C 5.003906 2.851562 5.410156 2.445312 5.914062 2.445312 Z M 5.914062 2.445312 "/>
</g>
</svg>

<svg xmlns="http://www.w3.org/2000/svg" width="22pt" height="22pt" viewBox="0 0 22 22"><path d="M5.004 1.082c-.758 0-1.367.61-1.367 1.363v17.282c0 .757.61 1.367 1.367 1.367h11.824c.754 0 1.363-.61 1.363-1.367V2.445c0-.754-.609-1.363-1.363-1.363zm.91 1.363h10.004c.504 0 .91.407.91.91V18.82a.905.905 0 0 1-.91.907H5.914a.905.905 0 0 1-.91-.907V3.355c0-.503.406-.91.91-.91zm0 0" fill="#bdbdbd"/></svg>
